X: 2
T: The Mill House
R: reel
M: 4/4
L: 1/8
K: Amaj
AB|:c2BA FEE2|A,B,CE FBAF|EFAB cfec|cBAc B2AB|c2BA FEE2|A,B,CE FBAF|EFAB cfec|1BAcB ~A3B:|2BAcB A2cd||eAce a2ga|fdaf ecAF|EFAB cfec|cBAc B2|[1cd|eAce a2ga|fdaf ecAF|EFAB cfec|BAcB A2cd:||[2AB|cBAc B2cd|c2BA FEE2|A,B,CE FDAF|EFAB cfec|BAcB ~A3B||


Tune 4484	Setting 4484

